X:1
T:Unser Herrscher, 87.87.77
T:Unser Herrscher, 87.87.77
T:Joachim Neander, 1680
T:Public Domain Courtesy of the Cyber Hymnal™
C:Joachim Neander, 1680
Z:Public Domain
Z:Courtesy of the Cyber Hymnal™
%%score ( 1 2 ) ( 3 4 )
L:1/8
Q:1/4=112
M:4/4
K:C
V:1 treble 
V:2 treble 
V:3 bass 
V:4 bass 
V:1
|: [G,C]3 [B,D] [CE]2 C2 | [CE]2 [CF]2 [DG]2 [DG]2 | [Cc]2 (BA) [DG]2 [Ge]2 | [Ad]2 [Gd]2 [Ec]4 :| %4
 [Ge]3 [Ge] [Gd]2 d2 | [Ec]2 [Ec]2 [EB]2 [EB]2 | A4 [CG]2 [Ec]2 | [Dd]2 [DB]2 [Ec]4 |] %8
V:2
|: x6 C2 | x8 | x2 C2 x4 | x8 :| x6 (GF) | x8 | (C3 B,) x4 | x8 |] %8
V:3
|: [C,E,]3 [G,,G,] [C,G,]2 [E,G,]2 | [C,G,]2 [A,,C]2 [G,,C]2 [G,B,]2 | [A,C]2 C2 [G,B,]2 [C,C]2 | %3
 [F,C]2 [G,B,]2 [C,C]4 :| [C,C]3 [E,C] [G,C]2 [G,B,]2 | [A,C]2 A,2 [E,A,]2 [E,^G,]2 | %6
 ([F,A,]3 [D,F,]) [E,G,]2 A,2 | [F,A,]2 G,2 [C,G,]4 |] %8
V:4
|: x8 | x8 | x2 (G,F,) x4 | x8 :| x8 | x2 (C,D,) x4 | x6 A,2 | x2 G,2 x4 |] %8

